icons/square-star.svg

<svg xmlns="http://www.w3.org/2000/svg" width="24" height="24" viewBox="0 0 24 24">
  <path d="M20,2 C21.1045695,2 22,2.8954305 22,4 L22,20 C22,21.1045695 21.1045695,22 20,22 L4,22 C2.8954305,22 2,21.1045695 2,20 L2,4 C2,2.8954305 2.8954305,2 4,2 L20,2 Z M12.4425657,6.36281539 C11.9473121,6.11839309 11.3476862,6.32173209 11.1032639,6.81698575 L11.1032639,6.81698575 L9.94275162,9.16844052 L7.34776721,9.54551383 C7.13013018,9.57713834 6.92898777,9.67962551 6.77547916,9.83710915 C6.38997795,10.2325927 6.39807026,10.865706 6.79355384,11.2512072 L6.79355384,11.2512072 L8.67130219,13.0815595 L8.22802594,15.6660584 C8.19084909,15.882816 8.22616377,16.1057841 8.32850284,16.3004446 C8.58550365,16.7892891 9.1901308,16.9772357 9.67897539,16.7202349 L9.67897539,16.7202349 L12,15.5 L14.3210246,16.7202349 C14.5156851,16.8225739 14.7386532,16.8578886 14.9554108,16.8207118 C15.4997472,16.7273507 15.8653351,16.2103948 15.7719741,15.6660584 L15.7719741,15.6660584 L15.3286978,13.0815595 L17.2064462,11.2512072 C17.3639298,11.0976986 17.466417,10.8965562 17.4980415,10.6789192 C17.5774591,10.1323743 17.1987777,9.62493144 16.6522328,9.54551383 L16.6522328,9.54551383 L14.0572484,9.16844052 L12.8967361,6.81698575 C12.7994058,6.61977315 12.6397783,6.46014562 12.4425657,6.36281539 Z"/>
</svg>

<svg xmlns="http://www.w3.org/2000/svg" viewBox="0 0 24 24">
  <path d="M20 2a2 2 0 0 1 2 2v16a2 2 0 0 1-2 2H4a2 2 0 0 1-2-2V4c0-1.1.9-2 2-2h16zm-7.56 4.36a1 1 0 0 0-1.34.46L9.94 9.17l-2.6.38a1 1 0 0 0-.55 1.7l1.88 1.83-.44 2.59a1 1 0 0 0 1.45 1.05L12 15.5l2.32 1.22a1 1 0 0 0 1.45-1.05l-.44-2.59 1.88-1.83a1 1 0 0 0-.56-1.7l-2.6-.38-1.15-2.35a1 1 0 0 0-.46-.46z"/>
</svg>
